svg/fluentui-system-icons/ic_fluent_number_row_24_filled.svg

<svg width="24" height="24" viewBox="0 0 24 24" fill="none" xmlns="http://www.w3.org/2000/svg">
<path d="M4.75 4H8.75C10.2688 4 11.5 5.23122 11.5 6.75V17.25C11.5 18.7688 10.2688 20 8.75 20H4.75C3.23122 20 2 18.7688 2 17.25V6.75C2 5.23122 3.23122 4 4.75 4ZM6 9V15C6 15.4142 6.33579 15.75 6.75 15.75C7.16421 15.75 7.5 15.4142 7.5 15V9C7.5 8.58579 7.16421 8.25 6.75 8.25C6.33579 8.25 6 8.58579 6 9ZM15.25 4H19.25C20.7688 4 22 5.23122 22 6.75V17.25C22 18.7688 20.7688 20 19.25 20H15.25C13.7312 20 12.5 18.7688 12.5 17.25V6.75C12.5 5.23122 13.7312 4 15.25 4ZM17.5 9.75V11.25H16.25C15.8358 11.25 15.5 11.5858 15.5 12V15C15.5 15.4142 15.8358 15.75 16.25 15.75H18.25C18.6642 15.75 19 15.4142 19 15C19 14.5858 18.6642 14.25 18.25 14.25H17V12.75H18.25C18.6642 12.75 19 12.4142 19 12V9C19 8.58579 18.6642 8.25 18.25 8.25H16.25C15.8358 8.25 15.5 8.58579 15.5 9C15.5 9.41421 15.8358 9.75 16.25 9.75H17.5Z" fill="#212121"/>
</svg>

<svg xmlns="http://www.w3.org/2000/svg" width="24" height="24"><path d="M4.75 4h4a2.75 2.75 0 0 1 2.75 2.75v10.5A2.75 2.75 0 0 1 8.75 20h-4A2.75 2.75 0 0 1 2 17.25V6.75A2.75 2.75 0 0 1 4.75 4ZM6 9v6a.75.75 0 0 0 1.5 0V9A.75.75 0 0 0 6 9Zm9.25-5h4A2.75 2.75 0 0 1 22 6.75v10.5A2.75 2.75 0 0 1 19.25 20h-4a2.75 2.75 0 0 1-2.75-2.75V6.75A2.75 2.75 0 0 1 15.25 4Zm2.25 5.75v1.5h-1.25a.75.75 0 0 0-.75.75v3c0 .414.336.75.75.75h2a.75.75 0 0 0 0-1.5H17v-1.5h1.25A.75.75 0 0 0 19 12V9a.75.75 0 0 0-.75-.75h-2a.75.75 0 0 0 0 1.5h1.25Z"/></svg>
